/* XPM */
static const char *xpm_[] = {
/* columns rows colors chars-per-pixel */
"64 64 256 2 ",
"   c #7B3917",
".  c #7B3928",
"X  c #7C2D29",
"o  c #7D4327",
"O  c #784416",
"+  c #863A1A",
"@  c #97390D",
"#  c #B4361D",
"$  c #883729",
"%  c #98392C",
"&  c #9A2B38",
"*  c #863935",
"=  c #983837",
"-  c #8D2B2D",
";  c #B6392A",
":  c #A62C36",
">  c #B62937",
",  c #A83738",
"<  c #B73739",
"1  c #A72F2C",
"2  c #A51F32",
"3  c #C43839",
"4  c #CA2F3B",
"5  c #894619",
"6  c #985418",
"7  c #924C14",
"8  c #AB4F17",
"9  c #B06F18",
"0  c #894629",
"q  c #984729",
"w  c #9A5626",
"e  c #894735",
"r  c #9A4638",
"t  c #99573A",
"y  c #8C552F",
"u  c #A54629",
"i  c #A65B2B",
"p  c #A94739",
"a  c #B6473A",
"s  c #A75838",
"d  c #B75637",
"f  c #B74F26",
"g  c #986C2C",
"h  c #B86A28",
"j  c #AC6536",
"k  c #B66838",
"l  c #B77638",
"z  c #AD722C",
"x  c #956817",
"c  c #C5463C",
"v  c #C85438",
"b  c #C77629",
"n  c #C77837",
"m  c #D47934",
"M  c #CD6F2E",
"N  c #E67535",
"B  c #C8721E",
"V  c #9B3545",
"C  c #992B47",
"Z  c #AA2A44",
"A  c #BC2C4C",
"S  c #B82A47",
"D  c #A93846",
"F  c #B33343",
"G  c #B5334C",
"H  c #B83948",
"J  c #BD2653",
"K  c #BD2A54",
"L  c #BC2A5B",
"P  c #B82759",
"I  c #BA3756",
"U  c #AC2F54",
"Y  c #BB2764",
"T  c #B73767",
"R  c #B0396D",
"E  c #B51C59",
"W  c #CB1D57",
"Q  c #C32A4C",
"!  c #C42649",
"~  c #C53749",
"^  c #C32555",
"/  c #C22A54",
"(  c #CB265A",
")  c #C52A5A",
"_  c #CB2A5B",
"`  c #C92756",
"'  c #D4245A",
"]  c #D22B5D",
"[  c #D62857",
"{  c #C73657",
"}  c #D2375C",
"|  c #D5344B",
" . c #D11B6F",
".. c #C82963",
"X. c #D72964",
"o. c #C63766",
"O. c #D63667",
"+. c #CD3473",
"@. c #E13F66",
"#. c #984B49",
"$. c #A94546",
"%. c #B84748",
"&. c #BA5646",
"*. c #AB4656",
"=. c #B84655",
"-. c #B95556",
";. c #A75846",
":. c #A96745",
">. c #B96648",
",. c #BA7746",
"<. c #AE6C54",
"1. c #BA4766",
"2. c #AE4B69",
"3. c #B76E6E",
"4. c #99654B",
"5. c #C64749",
"6. c #C85748",
"7. c #C74757",
"8. c #C65557",
"9. c #D65857",
"0. c #D64F4D",
"q. c #E35B53",
"w. c #C86848",
"e. c #D36949",
"r. c #CB7949",
"t. c #D67A48",
"y. c #C96757",
"u. c #D76853",
"i. c #D77756",
"p. c #CB7753",
"a. c #E57847",
"s. c #E76956",
"d. c #E87759",
"f. c #F17051",
"g. c #C84666",
"h. c #D84966",
"j. c #C75566",
"k. c #D75665",
"l. c #D44976",
"z. c #D75979",
"x. c #CA4C74",
"c. c #E7466C",
"v. c #E94675",
"b. c #E55A7A",
"n. c #EF5576",
"m. c #D06F6B",
"M. c #EC6F6F",
"N. c #B78A31",
"B. c #B8942B",
"V. c #C98639",
"C. c #D7843A",
"Z. c #C99837",
"A. c #CC8F2F",
"S. c #E5893C",
"D. c #D4B538",
"F. c #B88A4E",
"G. c #B88365",
"H. c #C78547",
"J. c #D98A46",
"K. c #D99847",
"L. c #C88855",
"P. c #D68758",
"I. c #C99558",
"U. c #D79858",
"Y. c #CC9646",
"T. c #E48647",
"R. c #E39647",
"E. c #E69857",
"W. c #EC8955",
"Q. c #C9A448",
"!. c #DAA858",
"~. c #D7AD4E",
"^. c #E6A858",
"/. c #EDB354",
"(. c #D89968",
"). c #D28E70",
"_. c #F0906F",
"`. c #D8A869",
"'. c #DAA676",
"]. c #D9B271",
"[. c #E9AB69",
"{. c #F5A767",
"}. c #E9B566",
"|. c #FAB76A",
" X c #E7AA75",
".X c #E7B775",
"XX c #FAB977",
"oX c #F7AB79",
"OX c #E9C757",
"+X c #F5C859",
"@X c #ECCC4B",
"#X c #E6C369",
"$X c #F9C669",
"%X c #FBD669",
"&X c #EAC877",
"*X c #FCC678",
"=X c #FCD678",
"-X c #ECD669",
";X c #FFE57B",
":X c #EFD656",
">X c #D9C332",
",X c #AF5188",
"<X c #BD6EA2",
"1X c #D95B87",
"2X c #CF5485",
"3X c #E75A87",
"4X c #F15687",
"5X c #D26F8E",
"6X c #E56588",
"7X c #E76895",
"8X c #F37191",
"9X c #F67AA5",
"0X c #F07AAC",
"qX c #D57AA7",
"wX c #D48D91",
"eX c #F7908F",
"rX c #D8AC90",
"tX c #FBA688",
"yX c #EAB487",
"uX c #F9B986",
"iX c #FFB898",
"pX c #EFAD91",
"aX c #D68AB3",
"sX c #E985A8",
"dX c #FB84AA",
"fX c #FB89B9",
"gX c #FD95BB",
"hX c #EE91B2",
"jX c #FAA6BB",
"kX c #F3B0AB",
"lX c #FDC787",
"zX c #FED887",
"xX c #FECA95",
"cX c #FFD597",
"vX c #EEC88D",
"bX c #FFE689",
"nX c #FFE799",
"mX c #FFF28E",
"MX c #FEC6A6",
"NX c #FACFAF",
"BX c #FFEAAA",
"VX c #FE98C7",
"CX c #E49BC9",
"ZX c #F9A9C8",
"AX c #F8ABD6",
"SX c #FFB7D9",
"DX c #FBB5CA",
"FX c #FEB9E7",
"GX c #FDAEE3",
"HX c #DF98C2",
"JX c #FFC9CF",
"KX c #FFEDD7",
"LX c #FFC6E9",
"PX c #FFC6F6",
"IX c #FFD4F5",
"UX c #FFEBF0",
/* pixels */
"J J J J J J J J ^ J ^ ^ ^ ^ ^ J Q A Q Q ^ ^ ^ Q ! ~ > H < 5.1 < < > > ~ ~ A J ^ W W W ^ ^ A F Z / ^ ) ) J E P L L K K A ! ! ! ! ",
"J J J J J J J / ^ ^ ^ ^ ^ ^ ^ ^ ^ ^ ^ ^ ^ ^ ^ / A { H 1 1 a u a c 3 < < H A K _ _ X.' ( ^ / G G A ^ ^ J J J J ) L J J J Q ! ! ! ",
"J J J J J / / / ^ ^ ^ ^ ^ ^ ` ` ` ` ) _ _ ) ) / H F a d p.k j n e.6.a a < F A } ( ' ' ( ` ^ A / Q / / A / ) ) / L / ^ ^ ^ ^ ^ ^ ",
"J J J J / / / / ^ ^ ` ` ` ` ` ` _ ..........) I H , &.(.lXl z l r.e.w.&.%.H H { ^ ( ' ' ( ` / / / { } / ^ _ ` ^ ) ) ) ) L L L L ",
"J J J / / / / / ^ ^ ) ) ` ` ` ` ..X.......o.{ I D y._.uXzXB.B.B.n r.r.w.w.&.H G ` ] X.X.] ` / J A { } { ^ ` ` ^ ` _ ( ..Y Y Y Y ",
"J J / / / / / / ^ ) ) ` ` _ _ _ _ _ _ ..o.o.T I , iXMXlX$XD.@XD.l r.H.r.p.w.%.< { ] ] ] ` ^ L I I A K / ` ! ` _ ( ( ( ..Y Y Y Y ",
"/ / / / / / ) ) ) ) ` ` _ _ _ _ ` ` ` ) { I I H y.MXuXlX$X+X%X@XA.n n n r.p.6.%.H ~ / / L o.l.1X1Xo.P ) } ` ` ] [ ( ) ) Y Y Y Y ",
"/ / / / / / ) ) ) ) ` ` _ _ _ ] Q ~ ~ ~ H H H %.kXiXr.XX=X+X/.A.A.m b h n r.w.&.< H { I g.1XsXVXfXl.P o.O._ Q [ ` ` ^ / L P U U ",
"J ^ ) ) ) ) ) ) ) ` ` _ _ _ _ { eXM.5.1 < 5.5.a _.u.t.XX|.A.9 A.S.C.b h h t.t.w.&., 8.8X5X3.hXUXPXR o.l.) O.! ! ! | | S S I I Z ",
"J ^ ) ) ) ) ) ) ` ` ` _ _ _ _ { s._._.u.a a &.d 6.i.W.W.T.C.m b S.M m R.R.n n i.i.6.y.m.3.wXJXUXIXR T g.K g.~ | | > 2 < ~ G F H ",
"^ ^ ) ) ) ) ` ` ` ` ` _ ] ] ] { ; d.tX_.e.d f d f e.t.M m T.W.N S.M C.|.|.J.n r.i.p.m.3.<.kXUXUXSXR 1.g.G 5.< < 5.c 0.M.b.{ Z Z ",
"^ ^ ) ) ) ) ` ` ` ` _ _ ] ] ] { ; v _.tXoXi.d f t.M M m T.T.a.a.T.C.J.{.*X*XE.h n k P.G.<.NXUXKXgX1.=.=.$.6.a v u._.eXM.k.{ A Z ",
"^ ^ ` ) ` ` ` ` ` _ _ ] ] ] ] } 5.< e.tXiX_.n h C.b n J.J.n n J.J.K.U.}.*XzX}.Y.H.l L.L.<.rXKXKXwX-.%.&.d p._._.oXtXM.5.> S ) ( ",
"^ ^ ` ) ` ` ` ` _ _ _ ] ] ] X.} 7.< 5._.tXP.n V.9 Z./.^.Y.Y.U.[.U.!.}.*X=X$X|.$X^.H.H.L.:.).KXKX;.d w.P.E.{.XXoXoXu.< > A ^ W X.",
"^ ^ ` ` ` ` ` ` _ _ ] ] ] ] X.] o.I 5.u.i.r.V.Y.A./.%X/.Q.~.!.!.I.].zXzX&X#X$X*XK.J.J.L.,.G.rXMXi r.E.|.|.|.{.E.r.f 1 H O.+. . .",
"^ ^ ` ` ` ( ( ( ] ] ] ] ] ] ] } o.g.7.6.w.P.K.~.%X;X=X}.Q.F.N.x F.vXzX#X#XzXzX!.l H.U.(.I.F.F.F.^.|.|.|./.^.{.E.u &.%.S P ......",
"! Q ` ( [ ' ' ' ' ' ' X.O.] _ O.l.U j.>.H.V.$XmX-XmXQ.&X&Xg 5 `.&X&X&X&X.XcXvX,.F.I.uX'..XcX`.F.%X~./.+X/.|._.a %.I { I I G F < ",
"! Q ` [ [ ' ' ' ' ' ] O.O.` _ o.P 1.-.p r.*XmX%X=X-X&X].`.F.F.`.zX#X=XnXcXcXvXI. XI.'.yXvX.XI.Q.OX@X@X/.|.{.u.5.{ o.o.o.I G < < ",
"! ^ ` ( ] ] ] ] O.X.....) L o.o.2Xz.j.m.P.lXbX;X=X~.zXF.I. XuX.XzX&X&X].].vXxXyXuX'.'.xXlX`.I.F.D.@X@X/.XXW.a 7.o.O.X.....) / A ",
"^ ` ` ` _ _ _ _ O...P P T x.1X6XfXgXeXeXp.|.=XbX$X#X}.x l  XxXxX*X*XxXcXcXxXxXyX'. X XxX&X!.].B.D.@X@X|.{.u.H 7.O.X.X.X.X.X.....",
"` ` ` ` _ _ ) ..P P T x.1X0XfXVXfXAXgXm.s oXzX*X}.bXl 7 i L. XxXlXXX*XcXxX'.(.yXI.`..XcX&X!.#XZ.@X>X+X|.i.%.7.O.X.X.X.X.X. . . .",
"^ ` ` ` _ ) ..Y L x.1X0XfXVXVXVX0X7Xj.-.d U.|.}.}.nXz 7 w i ,.oXlXcXXXL.H.L.L.I.(.L..XnX}.Q.#XOX:XD.+X[.&.=.l.O.X.[ [ [ X. . . .",
"W ( _ _ _ ) ) Y o.7XfXVXgXfXhXhXfX2.*.y.p.i l K.}.*XI.i w w i L.U.xXxX X X XL.k uXI.XXlXQ.Q.#XOX@X@X}.P.8.1.+.O.[ | | | [ ] .. .",
"W ( ( ( _ _ ) L o.7XgXgXsXsXhXVX0X5X5Xm.>.5 6 g `.U.lXl w w i k  XP.P.uXxX,.i (.cX[.zX!.z ~.%XOX@X%X[.y.j.g...O.| 4 4 4 4 Q L Y ",
"' ' ' ' _ ` { { Z =.6XgXgXhXsXhXFXIXUXKXpX,.j z l l '.'.g 0 t ,.[.U.r.j w i P.lXuXlX^.N.Z.OX:X/.+X$XE.&.j.x.o.} ~ 3 ; # ; ; D *.",
"W ' ] ` ` } } { k.G Z j.7XdXgXgXhXZXJXJXMXiXuX[.xXF.F.'.G.4.:.L.L.H.j 6 i L.XXxX[.|.}.~.~.%X%X+X/.|.W.8.g.o.{ h.< ; f 8 f u q $ ",
"W ' ] ] { Q H H < %.7.8.8.j.8XjXjXZXhX).).uXcXcX X(.rXyX'.rXyXrXL.H.l i ,. XlXXX[.}.}.+X+X%X:X+X$X{.e.a 7.g.{ H < v t.{.|.{.U.,.",
"_ ! ` h.~ 2 1 5.5.6.y.M.M.m.8.-.sXhXkXwX).(. X X(.yXMXkXrXNXKXvXI.U.L.I.[.lXlX[.!.!./.$X%X+X@X/.*X_.w.a %.7.7.5.9.d._.uXcXnXcXxX",
"/ A A H < a 6.d.u.i.i.i.i.w.&.%.5X5X5XwX).P.(.oXMXpXwXkXkXNXKXNX].`..XlXxXlXlXXXY.V.K.+X%X+X@X$XXXW.w.v a 5.9.M.M.s.u.e.r.U.[.XX",
"Z I H : a _.tX_.P.P.t.d u u e._.m.2.= p ;.k p._.).).).rXrXkXUXNXvX*XlXcXxX*XXXlXU.Y.Z./.+X+X@X+XlXr.f d e.s.s.9.0.5.%.p u u i j ",
"Z D $.-._.tXoXP.E.h 7 @ h t.t.w.$.V = p d u u u >.).).wXwXkXKXrX].&XzXzXlX*X*XlX[.K.Y./.+X+X@XOXlX,.8 M a.d.q.3 > A { 7.%.a u q ",
"$.- p eXNXiXi.i 7 7 6 h t.t.k q = $.%.p , p &.y.JXpX3.wXhXwXkX<.<. XxXxXlXlXzX=X^.Y.Z.~.+X%X+X$X(.y.i.W.v ; < 3 { { G G =.%.p u ",
"5 5 ).kXeX%.1 u d 6 j r.s q u % $ r p % %.=.1.sXIXZXsXZXLXSXsXx.z.j.eXMXxXlX*X^.A.Z.Z.Z.A.Z.A.h u.k.k.7.~ { { { { I G *.$.;.r 0 ",
"  r.tX_.%.H 5.&.% k k k w r $ $ q 0 r $.=.g.z.gXVXVXSXPXFXdX3X3X3Xl.z.eXiXuX{.K.A.A.Z.A.9 x 9 n M.h.{ { h.h.} { { H %.p r t t t ",
"7 P._.%.: ~ H 1 i.P.i 7 + q % ;.r $ r %.=.g.7XfX2XqXSXLXVXz.l.4X7Xl.7.M.tX{.T.S.R.^.$X=X$X/./.lXM.0.3 5.0.~ < 3 < c 6.w.k i 6 7 ",
"j w.&., H H H 9.tX>.7 5 5 q >.>.0 0 r $.D g.9X9X2XqXfXfX7Xl.l.4Xb.3Xk.9.W.T.m R.V.A.Z.}.*X*X$X|.e.0.5.0.c ; 3 0.q.s.d.W.W.J.n b ",
">.s , < H : k.jXy.+ ,.j j s (.s + r r , Z x.dX1X0X0X0X2Xl.3X4Xv.h.6Xk.c e.a.m C.^.R.Z.K.^.*X$X{.u a 5.c c 0.q.s.s.e.v v m a.T.W.",
"&.p , $.5.H k.eX% >.iX,.i L.uX+ 0 :.r = D x.fX6X0X0X7Xx.o.v.v.@.h.k.0.c e.W.S.B C.R.J.V.V.K.K.V.d 6.&.%.9.s.s.9.c ; # # # f f f ",
"&., , %.5.7.%., %.iXiXj w oX X5 :.m.r = *.1.9X7X9X7X3X+.O.O.c.c.c.7.0.s.a.W.S.b B m J.R.K.K.V.n y.y.8.8.9.9.7.~ ~ ~ ~ ~ ~ < > 2 ",
"$., %.%.: : %.H &.kXi.q j BXI.5 L.).% = *.U 6X8XfX3X+.@.v.c.n.4Xh.H u._.W.N S.S.m B h V.K.V.V.H.>.-.-.m.8., F 7.G { { { ) ) ) o.",
": F , %.F : F , kXm.p s ,.cXU.5 uX<.t $.V D z.7X9X4X4Xv.v.n.n.c.> < 6.d.W.T.S.S.R.C.n n n 9 x 6 j s s p p $.%.G I { o.....Y ..+.",
", %., H , : %.%.8X8.%.s p.cX.Xz xX:.+ r r $.z.6X8Xv.@.v.c.c.@.Q < , d t.T.m m S.R.E.{.|.}.^.~.^.H.H.,.k >.&.&.6.H I { o.+...Y E ",
"F %., , , & %.%.j.H 5.p P.cXlXY.cXl 5 s r r -.6X8XO.X.v.v.c.{ > , % u w.T.T.C.C.m K.|.zXnXzX=X=XbXbXzX=X|.E.t.w.v a < G { { ) J ",
"F =., , , = %.D H F 8., i.uXlX}.zXF.w L.t * $.z.4XO.O.n.n.h.{ Z , % % i J.{.{.^.C.V.K.}.=XbX;X%X%X%X%X%X=X*XXXXX_.i.v ; < H ~ ~ ",
"F %., , , % $., F G k., y.(.*X=XzXY.z `.:.;.r =.b.} c.4Xn.} G D = r q 7 h K.|.*X$X^.V.N.Q.OX%X;X~.D.A.B.A.Z././.*X{.T.v f f ; ; ",
"F 5., p q % $.& F I h.H 6.r.^.nXzX!.N.`.F.).-.D h.} c.4Xh.A Z = = ;.:.w 7 9 ^.zXzXzX*X}.Q.~.OX%X=X%X/.~.Z.A.N.9 K.R.R.C.M f 8 @ ",
"H 8.p % % % $.: G I 7.7.a d l bXzX$XQ.`.,.yX).m.I { c.n.h.I G D #.e :.L.l 6 z |.*XbXnXbX=X-X-X-XbXbXbXzX=X$X^.K.h b b m m M f 8 ",
"%.8.p % % , %.Z G { { 8., q w lX=XbX#X}.g yXiXkXF ~ h.n.h.g.x.=.*.. ;.uXuXz 6 V.=XzXzX=X=XbX;XbXzXlXXX|.|.|.*X*XR.V.h h b m b h ",
"H H < < < F F G Z { I G =.$.#.,.zX#XbX&Xg g BXNXm., b.b.l.8X2Xx.2.*.#.t uXBXU.z 9 Z.%XmX=X!.Q.^.K.J.J.C.n V.J.R.E.J.b h b b b B ",
"H H F F S A A A S G G H =.$.#.;.lX#X=XzXg g lXNXiXp 7.h.l.3X2X1XsXsXwXe :.BXBX=XQ.~.Z.B.!.=X*XU.C.J.J.J.J.t.n n t.n b b b b 9 8 ",
"G G A A K / / / A Z G =.%.$.= 0 H.!.&XnXN.x L.MXNX%.5.h.h.3X7XVXSXZXJXkX<.).cXBXnXnXzXzX.XU.N.z i 6 6 6 i i i i i j k n n n h 9 ",
"P P K J / ) ) ) K 2 G 5., , p + 7 H..XBX`.w w _.kX8.8.k.h.z.9XFXLXZXLXUXkX3.G.'.F.N.F.lXBXnXlXlX(.L.,.j i w 5 + 0 q w w i j l r.",
"P P Y Y ..) ) ) K 2 H 5.1 1 p u 7 i L.oXxX,.+ &._.8.7.7.x.3X8XgXSXLXZXjXJXJXrXG.pXrXF.y y F.`. XyXyXyXyX'.).:.e           0 t :.",
"P P Y ......) ) / S G H : 1 a a u + q s iX_.;.$.6.%.F 7.6XdX9X7XhXIXAXaXDXLXJXkX4.).rX'.:.O O O O o o e e e . X . . . . X . $ $ ",
"P L ........) ) / / S S H < , %., % - - m.wX%.=.H 7.I x.8XdX9X5XaXPXLXFXHXaXSXIXDXwX4.<.<.t 0 y t y o . . . o e e * * * * * X X ",
"J ^ ) ) _ ) ) ` ) { S S 7.H : F , 8.=.= & -.- D 7.b.b.6X7X2X2X5XAXFXFXFXqX<XFXSXIXDX5X#.* y y o o 0 e e e e e e * * $ * * * - - ",
"Q Q Q ^ ^ ^ ) ) ) / ) / K A G G G I I D & & : G g.g.z.6X7X7X0XhXCXLXAXPXGX,X<XFXFXSXjX3.* . e e 0 $ $ * * $ $ $ = = V = = = - - ",
"! ! Q Q Q ^ ^ ) ) ) / J K K I I I G G 7.k.b.b.b.8X9X9X6X7XVXVXaXaXLXPXIXGX,X2.aXGXLXSX5XV #.#.$ * $ $ % = % - % - = $.D D D = - ",
"4 4 ! Q Q Q ^ / ) ) ) / / / K K G F H j.M.8X8X8X6X9XdX9XdXVXhX5XAXFXAXFXGX,XR ,X7XVXLXjX2.- * #.= , , = , , , & - , D D D D D = ",
"! ! ! Q Q / / / / / / / / Q A S H 5.9.k.9.9.9.k.M.6X8X8X7X5XqXZXSXSXZXSXAX5XR R T x.gXSXsXV * *.D H H : : , , - 1 : , , : & : D ",
"A A A ^ ^ / / / A A S S S ~ ~ 5.q.s.d.d.u.6.6.0.q.k.M.8X8X5XhXSXZXSXIXSXsX1.U g.g.Z g.dXjX6X*.V G I G : : , , 2 , , : & & & & D ",
"L L L L L J J K A S > > 3 0.q.s.f.a.a.a.d.d.s.q.c 0.9.k.8XgXjXjXSXDXDXsX1.D F 7.{ F I z.8X8Xz.C U G S Z Z F F : H , & & & & V D ",
"Y Y Y Y Y L K K S F 3 5.0.q.f.f.a.N N N a.W.f.f.f.q.c < %.m.eXkXjXwX5X*.V H F ~ > ~ h.h.g.z.1X1.L P U U G G F D D : & V D V V V ",
"Y Y Y Y Y Y L A S ~ 0.s.f.f.f.N N N N N M M N f.f.f.M.eXM.-.#.#.#.#.3.-.D %.> > > ~ h.b.b.6X6X1Xo.P P I I Z Z D D & & V D D C C "
};
